static/images/jetpack/illustration-jetpack-monitor.svg

<svg height="44" viewBox="0 0 48 44" width="48" xmlns="http://www.w3.org/2000/svg"><g fill="none" fill-rule="evenodd"><path d="m43.4784274 43.8868571h-38.93716244c-2.44211966 0-4.42188034-2.0221841-4.42188034-4.5166349v-34.80679363c0-2.49445079 1.97976068-4.51663492 4.42188034-4.51663492h38.93716244c2.4421196 0 4.4218803 2.02218413 4.4218803 4.51663492v34.80679363c0 2.4944508-1.9797607 4.5166349-4.4218803 4.5166349" fill="#212b35"/><path d="m6.80082051 14.4762794c0-3.4459683 2.73490599-6.23961908 6.10858119-6.23961908 3.373812 0 6.108718 2.79365078 6.108718 6.23961908 0 3.4461079-2.734906 6.239619-6.108718 6.239619-3.3736752 0-6.10858119-2.7935111-6.10858119-6.239619" fill="#da3c3e"/><path d="m14.4577094 11.6929651c-.6406838 0-1.2058803.326019-1.5483077.8237079-.3422906-.4976889-.9074872-.8237079-1.5481709-.8237079-1.0450599 0-1.89223935.8653333-1.89223935 1.9327873 0 2.0097524 2.23630765 3.6680635 3.44041025 4.5157968 1.2042393-.8477333 3.440547-2.5060444 3.440547-4.5157968 0-1.067454-.8471795-1.9327873-1.8922393-1.9327873" fill="#f1b0ad"/><path d="m39.4616068 20.4018921h-16.068923c-.7552821 0-1.3675214-.6253588-1.3675214-1.3968254v-8.5049905c0-.77146668.6122393-1.39682541 1.3675214-1.39682541h16.068923c.7552821 0 1.3675214.62535873 1.3675214 1.39682541v8.5049905c0 .7714666-.6122393 1.3968254-1.3675214 1.3968254" fill="#da3c3e"/><g fill="#23a1ca"><path d="m9.34577778 26.7954413h5.50919662c1.0390427 0 1.8814359.8604444 1.8814359 1.921892 0 1.061308-.8423932 1.9217524-1.8814359 1.9217524h-5.50919662c-1.03917949 0-1.88157265-.8604444-1.88157265-1.9217524 0-1.0614476.84239316-1.921892 1.88157265-1.921892"/><path d="m19.2015043 34.1773841v-5.6272508c0-1.0614476.8423931-1.921892 1.8814359-1.921892 1.0391795 0 1.8815726.8604444 1.8815726 1.921892v5.6272508c0 1.061308-.8423931 1.9217524-1.8815726 1.9217524-1.0390428 0-1.8814359-.8604444-1.8814359-1.9217524"/><path d="m33.1647179 32.0882921h5.5091966c1.0391795 0 1.8814359.8604444 1.8814359 1.921892 0 1.061308-.8422564 1.9217524-1.8814359 1.9217524h-5.5091966c-1.0391794 0-1.8815726-.8604444-1.8815726-1.9217524 0-1.0614476.8423932-1.921892 1.8815726-1.921892"/></g><path d="m9.56129915 27.6202667c.59323075 0 1.07405125.4911238 1.07405125 1.0970666 0 .6058032-.4808205 1.096927-1.07405125 1.096927-.59323077 0-1.07405129-.4911238-1.07405129-1.096927 0-.6059428.48082052-1.0970666 1.07405129-1.0970666" fill="#1c7dab"/><path d="m9.56129915 35.1072508c.59323075 0 1.07405125-.4912635 1.07405125-1.0970667 0-.6059428-.4808205-1.0970666-1.07405125-1.0970666-.59323077 0-1.07405129.4911238-1.07405129 1.0970666 0 .6058032.48082052 1.0970667 1.07405129 1.0970667" fill="#23a1ca"/><path d="m9.56129915 27.6202667c.59323075 0 1.07405125.4911238 1.07405125 1.0970666 0 .6058032-.4808205 1.096927-1.07405125 1.096927-.59323077 0-1.07405129-.4911238-1.07405129-1.096927 0-.6059428.48082052-1.0970666 1.07405129-1.0970666" fill="#1c7dab"/><path d="m22.1569915 28.7173333c0-.6059428-.4808206-1.0970666-1.0740513-1.0970666-.593094 0-1.0740513.4911238-1.0740513 1.0970666 0 .6058032.4809573 1.096927 1.0740513 1.096927.5932307 0 1.0740513-.4911238 1.0740513-1.096927" fill="#1c7dab"/><path d="m13.6690598 34.0101841c0 .6058032.4809573 1.0970667 1.0740513 1.0970667.5932308 0 1.0740513-.4912635 1.0740513-1.0970667 0-.6059428-.4808205-1.0970666-1.0740513-1.0970666-.593094 0-1.0740513.4911238-1.0740513 1.0970666" fill="#61b87c"/><path d="m25.1070085 34.1773841v-5.6272508c0-1.0614476.8423932-1.921892 1.8815727-1.921892s1.8814359.8604444 1.8814359 1.921892v5.6272508c0 1.061308-.8422564 1.9217524-1.8814359 1.9217524s-1.8815727-.8604444-1.8815727-1.9217524" fill="#23a1ca"/><path d="m33.3284103 27.6202667c.593094 0 1.0740512.4911238 1.0740512 1.0970666 0 .6058032-.4809572 1.096927-1.0740512 1.096927-.5932308 0-1.0740513-.4911238-1.0740513-1.096927 0-.6059428.4808205-1.0970666 1.0740513-1.0970666" fill="#61b87c"/><path d="m26.9885812 35.1072508c-.5932308 0-1.0740513-.4912635-1.0740513-1.0970667 0-.6059428.4808205-1.0970666 1.0740513-1.0970666.593094 0 1.0740513.4911238 1.0740513 1.0970666 0 .6058032-.4809573 1.0970667-1.0740513 1.0970667" fill="#1c7dab"/><path d="m37.4361709 28.7173333c0-.6059428.4808206-1.0970666 1.0740513-1.0970666.5932308 0 1.0740513.4911238 1.0740513 1.0970666 0 .6058032-.4808205 1.096927-1.0740513 1.096927-.5932307 0-1.0740513-.4911238-1.0740513-1.096927" fill="#61b87c"/><path d="m37.4361709 34.0101841c0 .6058032.4808206 1.0970667 1.0740513 1.0970667.5932308 0 1.0740513-.4912635 1.0740513-1.0970667 0-.6059428-.4808205-1.0970666-1.0740513-1.0970666-.5932307 0-1.0740513.4911238-1.0740513 1.0970666" fill="#1c7dab"/><path d="m40.829265 17.3922921c-1.0127864 0-1.4108718-1.1771048-1.7958291-2.3153778-.2230427-.6598603-.5602735-1.6569143-.8909402-1.6569143-.3306666 0-.6678974.997054-.8909401 1.6569143-.3849573 1.138273-.7830428 2.3153778-1.7956924 2.3153778-1.0126495 0-1.4105982-1.1771048-1.7955555-2.3152381-.2230427-.6598603-.5602735-1.657054-.8908034-1.657054s-.667624.997054-.8906667 1.6567746c-.3848205 1.1384127-.782906 2.3155175-1.7955555 2.3155175-1.0125129 0-1.4105983-1.1771048-1.7954189-2.3155175-.2230427-.6597206-.5601367-1.6567746-.8906666-1.6567746s-.667624.997054-.8906667 1.6567746c-.3848205 1.1384127-.7830427 2.3155175-1.7955555 2.3155175-1.0125129 0-1.4104616-1.1771048-1.7954188-2.3155175-.222906-.6597206-.56-1.6567746-.8902565-1.6567746v-.9777778c1.0123761 0 1.4103248 1.1771048 1.7952821 2.3153778.222906.6598603.56 1.6569143.8903932 1.6569143.3305299 0 .6676239-.997054.8906666-1.6567746.3848205-1.1384127.7830428-2.3155175 1.7955556-2.3155175s1.4105983 1.1771048 1.7955555 2.3155175c.2230428.6597206.56 1.6567746.89053 1.6567746.3305299 0 .6676239-.997054.8906666-1.6567746.3849573-1.1384127.7830428-2.3155175 1.7955556-2.3155175 1.0126495 0 1.4105983 1.1771048 1.7956923 2.3155175.2230427.6597206.5601367 1.6567746.8906666 1.6567746.3306667 0 .6677607-.997054.8908035-1.6569143.385094-1.138273.7831795-2.3153778 1.795829-2.3153778 1.0126496 0 1.4107351 1.1771048 1.7958291 2.3153778.2230427.6598603.5602735 1.6569143.8909402 1.6569143z" fill="#f1b0ad"/></g></svg>

<?xml version="1.0" encoding="UTF-8" standalone="no"?>
<svg width="48px" height="44px" viewBox="0 0 48 44" version="1.1" xmlns="http://www.w3.org/2000/svg" xmlns:xlink="http://www.w3.org/1999/xlink">
    <g stroke="none" stroke-width="1" fill="none" fill-rule="evenodd">
        <g>
            <path d="M43.4784274,43.8868571 L4.54126496,43.8868571 C2.0991453,43.8868571 0.119384615,41.864673 0.119384615,39.3702222 L0.119384615,4.56342857 C0.119384615,2.06897778 2.0991453,0.0467936508 4.54126496,0.0467936508 L43.4784274,0.0467936508 C45.920547,0.0467936508 47.9003077,2.06897778 47.9003077,4.56342857 L47.9003077,39.3702222 C47.9003077,41.864673 45.920547,43.8868571 43.4784274,43.8868571" id="Fill-1" fill="#212B35"></path>
            <path d="M6.80082051,14.4762794 C6.80082051,11.0303111 9.5357265,8.23666032 12.9094017,8.23666032 C16.2832137,8.23666032 19.0181197,11.0303111 19.0181197,14.4762794 C19.0181197,17.9223873 16.2832137,20.7158984 12.9094017,20.7158984 C9.5357265,20.7158984 6.80082051,17.9223873 6.80082051,14.4762794" id="Fill-2" fill="#DA3C3E"></path>
            <path d="M14.4577094,11.6929651 C13.8170256,11.6929651 13.2518291,12.0189841 12.9094017,12.516673 C12.5671111,12.0189841 12.0019145,11.6929651 11.3612308,11.6929651 C10.3161709,11.6929651 9.46899145,12.5582984 9.46899145,13.6257524 C9.46899145,15.6355048 11.7052991,17.2938159 12.9094017,18.1415492 C14.113641,17.2938159 16.3499487,15.6355048 16.3499487,13.6257524 C16.3499487,12.5582984 15.5027692,11.6929651 14.4577094,11.6929651" id="Fill-3" fill="#F1B0AD"></path>
            <path d="M39.4616068,20.4018921 L23.3926838,20.4018921 C22.6374017,20.4018921 22.0251624,19.7765333 22.0251624,19.0050667 L22.0251624,10.5000762 C22.0251624,9.72860952 22.6374017,9.10325079 23.3926838,9.10325079 L39.4616068,9.10325079 C40.2168889,9.10325079 40.8291282,9.72860952 40.8291282,10.5000762 L40.8291282,19.0050667 C40.8291282,19.7765333 40.2168889,20.4018921 39.4616068,20.4018921" id="Fill-4" fill="#DA3C3E"></path>
            <path d="M9.34577778,26.7954413 L14.8549744,26.7954413 C15.8940171,26.7954413 16.7364103,27.6558857 16.7364103,28.7173333 C16.7364103,29.7786413 15.8940171,30.6390857 14.8549744,30.6390857 L9.34577778,30.6390857 C8.30659829,30.6390857 7.46420513,29.7786413 7.46420513,28.7173333 C7.46420513,27.6558857 8.30659829,26.7954413 9.34577778,26.7954413" id="Fill-5" fill="#23A1CA"></path>
            <path d="M19.2015043,34.1773841 L19.2015043,28.5501333 C19.2015043,27.4886857 20.0438974,26.6282413 21.0829402,26.6282413 C22.1221197,26.6282413 22.9645128,27.4886857 22.9645128,28.5501333 L22.9645128,34.1773841 C22.9645128,35.2386921 22.1221197,36.0991365 21.0829402,36.0991365 C20.0438974,36.0991365 19.2015043,35.2386921 19.2015043,34.1773841" id="Fill-6" fill="#23A1CA"></path>
            <path d="M33.1647179,32.0882921 L38.6739145,32.0882921 C39.713094,32.0882921 40.5553504,32.9487365 40.5553504,34.0101841 C40.5553504,35.0714921 39.713094,35.9319365 38.6739145,35.9319365 L33.1647179,35.9319365 C32.1255385,35.9319365 31.2831453,35.0714921 31.2831453,34.0101841 C31.2831453,32.9487365 32.1255385,32.0882921 33.1647179,32.0882921" id="Fill-7" fill="#23A1CA"></path>
            <path d="M9.56129915,27.6202667 C10.1545299,27.6202667 10.6353504,28.1113905 10.6353504,28.7173333 C10.6353504,29.3231365 10.1545299,29.8142603 9.56129915,29.8142603 C8.96806838,29.8142603 8.48724786,29.3231365 8.48724786,28.7173333 C8.48724786,28.1113905 8.96806838,27.6202667 9.56129915,27.6202667" id="Fill-8" fill="#1C7DAB"></path>
            <path d="M9.56129915,35.1072508 C10.1545299,35.1072508 10.6353504,34.6159873 10.6353504,34.0101841 C10.6353504,33.4042413 10.1545299,32.9131175 9.56129915,32.9131175 C8.96806838,32.9131175 8.48724786,33.4042413 8.48724786,34.0101841 C8.48724786,34.6159873 8.96806838,35.1072508 9.56129915,35.1072508" id="Fill-9" fill="#23A1CA"></path>
            <path d="M9.56129915,27.6202667 C10.1545299,27.6202667 10.6353504,28.1113905 10.6353504,28.7173333 C10.6353504,29.3231365 10.1545299,29.8142603 9.56129915,29.8142603 C8.96806838,29.8142603 8.48724786,29.3231365 8.48724786,28.7173333 C8.48724786,28.1113905 8.96806838,27.6202667 9.56129915,27.6202667" id="Fill-10" fill="#1C7DAB"></path>
            <path d="M22.1569915,28.7173333 C22.1569915,28.1113905 21.6761709,27.6202667 21.0829402,27.6202667 C20.4898462,27.6202667 20.0088889,28.1113905 20.0088889,28.7173333 C20.0088889,29.3231365 20.4898462,29.8142603 21.0829402,29.8142603 C21.6761709,29.8142603 22.1569915,29.3231365 22.1569915,28.7173333" id="Fill-11" fill="#1C7DAB"></path>
            <path d="M13.6690598,34.0101841 C13.6690598,34.6159873 14.1500171,35.1072508 14.7431111,35.1072508 C15.3363419,35.1072508 15.8171624,34.6159873 15.8171624,34.0101841 C15.8171624,33.4042413 15.3363419,32.9131175 14.7431111,32.9131175 C14.1500171,32.9131175 13.6690598,33.4042413 13.6690598,34.0101841" id="Fill-12" fill="#61B87C"></path>
            <path d="M25.1070085,34.1773841 L25.1070085,28.5501333 C25.1070085,27.4886857 25.9494017,26.6282413 26.9885812,26.6282413 C28.0277607,26.6282413 28.8700171,27.4886857 28.8700171,28.5501333 L28.8700171,34.1773841 C28.8700171,35.2386921 28.0277607,36.0991365 26.9885812,36.0991365 C25.9494017,36.0991365 25.1070085,35.2386921 25.1070085,34.1773841" id="Fill-13" fill="#23A1CA"></path>
            <path d="M33.3284103,27.6202667 C33.9215043,27.6202667 34.4024615,28.1113905 34.4024615,28.7173333 C34.4024615,29.3231365 33.9215043,29.8142603 33.3284103,29.8142603 C32.7351795,29.8142603 32.254359,29.3231365 32.254359,28.7173333 C32.254359,28.1113905 32.7351795,27.6202667 33.3284103,27.6202667" id="Fill-14" fill="#61B87C"></path>
            <path d="M26.9885812,35.1072508 C26.3953504,35.1072508 25.9145299,34.6159873 25.9145299,34.0101841 C25.9145299,33.4042413 26.3953504,32.9131175 26.9885812,32.9131175 C27.5816752,32.9131175 28.0626325,33.4042413 28.0626325,34.0101841 C28.0626325,34.6159873 27.5816752,35.1072508 26.9885812,35.1072508" id="Fill-15" fill="#1C7DAB"></path>
            <path d="M37.4361709,28.7173333 C37.4361709,28.1113905 37.9169915,27.6202667 38.5102222,27.6202667 C39.103453,27.6202667 39.5842735,28.1113905 39.5842735,28.7173333 C39.5842735,29.3231365 39.103453,29.8142603 38.5102222,29.8142603 C37.9169915,29.8142603 37.4361709,29.3231365 37.4361709,28.7173333" id="Fill-16" fill="#61B87C"></path>
            <path d="M37.4361709,34.0101841 C37.4361709,34.6159873 37.9169915,35.1072508 38.5102222,35.1072508 C39.103453,35.1072508 39.5842735,34.6159873 39.5842735,34.0101841 C39.5842735,33.4042413 39.103453,32.9131175 38.5102222,32.9131175 C37.9169915,32.9131175 37.4361709,33.4042413 37.4361709,34.0101841" id="Fill-17" fill="#1C7DAB"></path>
            <path d="M40.829265,17.3922921 C39.8164786,17.3922921 39.4183932,16.2151873 39.0334359,15.0769143 C38.8103932,14.417054 38.4731624,13.42 38.1424957,13.42 C37.8118291,13.42 37.4745983,14.417054 37.2515556,15.0769143 C36.8665983,16.2151873 36.4685128,17.3922921 35.4558632,17.3922921 C34.4432137,17.3922921 34.045265,16.2151873 33.6603077,15.077054 C33.437265,14.4171937 33.1000342,13.42 32.7695043,13.42 C32.4389744,13.42 32.1018803,14.417054 31.8788376,15.0767746 C31.4940171,16.2151873 31.0959316,17.3922921 30.0832821,17.3922921 C29.0707692,17.3922921 28.6726838,16.2151873 28.2878632,15.0767746 C28.0648205,14.417054 27.7277265,13.42 27.3971966,13.42 C27.0666667,13.42 26.7295726,14.417054 26.5065299,15.0767746 C26.1217094,16.2151873 25.7234872,17.3922921 24.7109744,17.3922921 C23.6984615,17.3922921 23.3005128,16.2151873 22.9155556,15.0767746 C22.6926496,14.417054 22.3555556,13.42 22.0252991,13.42 L22.0252991,12.4422222 C23.0376752,12.4422222 23.4356239,13.619327 23.8205812,14.7576 C24.0434872,15.4174603 24.3805812,16.4145143 24.7109744,16.4145143 C25.0415043,16.4145143 25.3785983,15.4174603 25.601641,14.7577397 C25.9864615,13.619327 26.3846838,12.4422222 27.3971966,12.4422222 C28.4097094,12.4422222 28.8077949,13.619327 29.1927521,14.7577397 C29.4157949,15.4174603 29.7527521,16.4145143 30.0832821,16.4145143 C30.413812,16.4145143 30.750906,15.4174603 30.9739487,14.7577397 C31.358906,13.619327 31.7569915,12.4422222 32.7695043,12.4422222 C33.7821538,12.4422222 34.1801026,13.619327 34.5651966,14.7577397 C34.7882393,15.4174603 35.1253333,16.4145143 35.4558632,16.4145143 C35.7865299,16.4145143 36.1236239,15.4174603 36.3466667,14.7576 C36.7317607,13.619327 37.1298462,12.4422222 38.1424957,12.4422222 C39.1551453,12.4422222 39.5532308,13.619327 39.9383248,14.7576 C40.1613675,15.4174603 40.4985983,16.4145143 40.829265,16.4145143 L40.829265,17.3922921" id="Fill-18" fill="#F1B0AD"></path>
        </g>
    </g>
</svg>
